X:283
%%etbk:tnset id:86,pos:2,rep:3x,ant:
%%etbk:wsite http://www.thesession.org/tunes/display/1392
%%etbk:pldat 2016-03-17T18:17,2014-12-16T17:42,2014-12-07T11:33,2014-05-20T17:07,2014-02-04T18:27,2013-12-11T19:26,2013-10-03T19:32,2013-05-21T17:44,2013-05-05T14:34
T: Boys of Tanderagee
T: Linnane's
Z: Piano Box Version by Martin Fleischmann
H: Created 2013-02-19 /  Last Modified 2013-12-11
M: 6/8
L: 1/8
R: jig
K: Emin
|: "em"!5![B3E] !1!E !3!(3E!2!E!1!E | !2!BAB !4!d2B | {d}!2!B!1!A!3!F "D"!1!D !3!(3D!2!D!1!D | !3!FE!1!D !2!FG!4!A |
"em"!5!BAB !1!E !3!(3E!2!E!1!E | !2!BA!2!B !3!de!5!f | "D"!4!e!3!d!2!B !1!A!2!F!4!A | "em"!5!B!1!EE E3:|
|: "em"!2!B!4!e!4!e {g}!4!e!3!d!2!B | "D"!3!d!4!e!3!f !5!afd | "em"!2!ege !1!df!1!d | !2!BAB !4!dB!1!A |
"em"!2!B!4!e!4!e {g}!4!e!3!d!2!B | "D"!3!d!4!e!3!f !5!afd | "em"{g}!2!e!1!d!2!B !1!A!2!F!4!A | !5!B!1!EE E3:|


